Numix-GalliumOS/32/actions/go-bottom.svg

<svg width="32" xmlns="http://www.w3.org/2000/svg" height="32" viewBox="0 0 32 32" xmlns:xlink="http://www.w3.org/1999/xlink">
<path style="fill:#268bd2;fill-rule:evenodd" d="M 15.996094 32 C 7.160156 32 0 24.835938 0 16 C 0 7.164062 7.160156 0 15.996094 0 C 24.835938 0 32 7.164062 32 16 C 32 24.835938 24.835938 32 15.996094 32 Z "/>
<g style="fill:#fff;fill-opacity:.902">
<path d="M 25.992188 16.3125 C 26.023438 15.382812 25.496094 14.550781 24.617188 14.1875 C 23.742188 13.824219 22.714844 14.019531 22.054688 14.6875 L 17.992188 18.625 L 17.992188 6 L 13.992188 6 L 13.992188 18.625 L 9.929688 14.6875 C 9.03125 13.8125 7.582031 13.8125 6.679688 14.6875 C 5.78125 15.5625 5.78125 17 6.679688 17.875 L 14.367188 25.3125 C 14.800781 25.738281 15.382812 26 15.992188 26 C 16.605469 26 17.1875 25.738281 17.617188 25.3125 L 25.304688 17.875 C 25.730469 17.472656 25.976562 16.898438 25.992188 16.3125 Z "/>
<path style="fill-rule:evenodd" d="M 28.503906 25.980469 C 25.46875 29.785156 20.867188 32 15.996094 32 C 11.144531 32 6.558594 29.796875 3.519531 26.011719 "/>
</g>
</svg>

<svg xmlns="http://www.w3.org/2000/svg" viewBox="0 0 32 32">
 <path d="m 15.996 0 c -8.836 0 -15.996 7.164 -15.996 16 0 3.792 1.326 7.27 3.529 10.01 4.471 0.988 20.471 0.988 24.965 -0.031 2.19 -2.737 3.506 -6.203 3.506 -9.98 0 -8.836 -7.164 -16 -16 -16" style="fill:#268bd2;fill-rule:evenodd"/>
 <g style="fill:#fff;fill-opacity:0.902">
  <path d="m 25.992 16.313 c 0.031 -0.93 -0.496 -1.762 -1.375 -2.125 c -0.875 -0.363 -1.902 -0.168 -2.563 0.5 l -4.063 3.938 l 0 -12.625 l -4 0 l 0 12.625 l -4.063 -3.938 c -0.898 -0.875 -2.348 -0.875 -3.25 0 c -0.898 0.875 -0.898 2.313 0 3.188 l 7.688 7.438 c 0.434 0.426 1.016 0.688 1.625 0.688 c 0.613 0 1.195 -0.262 1.625 -0.688 l 7.688 -7.438 c 0.426 -0.402 0.672 -0.977 0.688 -1.563 Z" style="fill:#eaf4fb;fill-opacity:1"/>
  <path d="m 28.504 25.98 c -3.035 3.805 -7.637 6.02 -12.508 6.02 c -4.852 0 -9.438 -2.203 -12.477 -5.988" style="fill:#eaf4fb;fill-opacity:1;fill-rule:evenodd"/>
 </g>
</svg>
